Adwaita++-Light/panel/16/QMPlay2-panel.svg

<svg height="16" width="16" xmlns="http://www.w3.org/2000/svg">
  <path d="m2.6289062 1a1.5912092 1.4213061 0 0 0 -1.6289062 1.4199219v5.5800781 5.580078a1.5912092 1.4213061 0 0 0 2.3867188 1.228516l5.4101562-2.789063 5.408203-2.7890622a1.5912092 1.4213061 0 0 0 0-2.4609376l-5.408203-2.7890624-5.4101562-2.7910157a1.5912092 1.4213061 0 0 0 -.7578126-.1894531zm-.1582031 1.9667969.0078125.0039062c-.00314-.00152-.0045425-.0002723-.0078125-.0019531zm.5292969.2734375 4.8789062 2.5175781 4.3496098 2.2421875-4.3496098 2.242188-4.8789062 2.515624v-4.757812z" fill="#444"/>
</svg>

<svg xmlns="http://www.w3.org/2000/svg" width="16" height="16" version="1.1">
 <defs>
  <style id="current-color-scheme" type="text/css">
   .ColorScheme-Text { color:#444444; } .ColorScheme-Highlight { color:#4285f4; }
  </style>
 </defs>
 <path style="fill:currentColor" class="ColorScheme-Text" d="M 2.6289062 1 A 1.5912092 1.4213061 0 0 0 1 2.4199219 L 1 8 L 1 13.580078 A 1.5912092 1.4213061 0 0 0 3.3867188 14.808594 L 8.796875 12.019531 L 14.205078 9.2304688 A 1.5912092 1.4213061 0 0 0 14.205078 6.7695312 L 8.796875 3.9804688 L 3.3867188 1.1894531 A 1.5912092 1.4213061 0 0 0 2.6289062 1 z M 2.4707031 2.9667969 L 2.4785156 2.9707031 C 2.4753756 2.9691831 2.4739731 2.9704308 2.4707031 2.96875 L 2.4707031 2.9667969 z M 3 3.2402344 L 7.8789062 5.7578125 L 12.228516 8 L 7.8789062 10.242188 L 3 12.757812 L 3 8 L 3 3.2402344 z"/>
</svg>
